src/lib/packages/icons/src/assets/line/home-dash-heart.svg

<svg width="24" height="24" viewBox="0 0 24 24" fill="none" xmlns="http://www.w3.org/2000/svg">
<path d="M17.053 21.75H6.94805C5.37705 21.75 4.03205 20.628 3.75005 19.083L2.2951 11.0999C2.1171 10.1189 2.48408 9.11599 3.25408 8.483L9.93609 2.98995C11.1331 2.00595 12.8701 2.00595 14.0671 2.98995L20.7491 8.483C21.5191 9.11599 21.8861 10.1189 21.7081 11.0999L20.2531 19.083C19.9691 20.628 18.624 21.75 17.053 21.75ZM12.0001 3.75094C11.6041 3.75094 11.21 3.88291 10.888 4.14791L4.20611 9.64095C3.85511 9.92895 3.68807 10.385 3.77007 10.831L5.22503 18.813C5.37603 19.645 6.10107 20.249 6.94707 20.249H17.0521C17.8981 20.249 18.6221 19.645 18.7741 18.813L20.2291 10.8299C20.3101 10.3839 20.143 9.92895 19.793 9.64095L13.111 4.14791C12.79 3.88391 12.3951 3.75094 12.0001 3.75094ZM19.513 18.948H19.523H19.513ZM12.0001 18.25C11.8951 18.25 11.7891 18.2279 11.6911 18.1839C11.5381 18.1149 7.92706 16.452 7.33807 13.438C7.10007 12.219 7.33611 11.063 7.98711 10.269C8.52911 9.60701 9.303 9.25494 10.226 9.25094C11.023 9.25794 11.5861 9.565 11.9981 9.967C12.4081 9.568 12.987 9.25094 13.756 9.25094C13.76 9.25094 13.7651 9.25094 13.7701 9.25094C14.6941 9.25494 15.4681 9.60691 16.0101 10.2679C16.6601 11.0619 16.8981 12.217 16.6591 13.438C16.0701 16.452 12.4601 18.1149 12.3061 18.1839C12.2111 18.2279 12.1051 18.25 12.0001 18.25ZM10.24 10.75C10.238 10.75 10.237 10.75 10.235 10.75C9.76704 10.752 9.401 10.91 9.148 11.218C8.787 11.659 8.66109 12.382 8.81109 13.149C9.16609 14.967 11.2111 16.232 11.9991 16.659C12.7871 16.233 14.8321 14.968 15.1871 13.149C15.3371 12.38 15.211 11.658 14.85 11.217C14.597 10.909 14.232 10.752 13.762 10.749C13.057 10.724 12.7371 11.479 12.7071 11.563C12.6001 11.861 12.3151 12.063 11.9991 12.063C11.9971 12.063 11.994 12.063 11.991 12.063C11.672 12.06 11.388 11.858 11.287 11.555C11.262 11.48 10.978 10.75 10.24 10.75ZM15.9251 13.2929H15.9351H15.9251Z" fill="currentColor"/>
</svg>

<svg xmlns="http://www.w3.org/2000/svg" width="24" height="24" fill="none"><path fill="currentColor" d="M17.053 21.75H6.948a3.25 3.25 0 0 1-3.198-2.667L2.295 11.1a2.753 2.753 0 0 1 .96-2.617l6.68-5.493a3.26 3.26 0 0 1 4.131 0l6.682 5.493a2.753 2.753 0 0 1 .96 2.617l-1.456 7.983a3.254 3.254 0 0 1-3.2 2.667ZM12 3.75c-.396 0-.79.133-1.112.398L4.206 9.64a1.248 1.248 0 0 0-.436 1.19l1.455 7.982a1.75 1.75 0 0 0 1.722 1.436h10.105a1.75 1.75 0 0 0 1.722-1.436l1.455-7.983a1.25 1.25 0 0 0-.436-1.189l-6.682-5.493a1.747 1.747 0 0 0-1.11-.397Zm7.513 15.198h.01-.01ZM12 18.25a.756.756 0 0 1-.309-.066c-.153-.07-3.764-1.732-4.353-4.746-.238-1.219-.002-2.375.65-3.169.541-.662 1.315-1.014 2.238-1.018.797.007 1.36.314 1.772.716.41-.399.989-.716 1.758-.716h.014c.924.004 1.698.356 2.24 1.017.65.794.888 1.949.65 3.17-.59 3.014-4.2 4.677-4.354 4.746a.733.733 0 0 1-.306.066Zm-1.76-7.5h-.005c-.468.002-.834.16-1.087.468-.361.441-.487 1.164-.337 1.931.355 1.818 2.4 3.083 3.188 3.51.788-.426 2.833-1.691 3.188-3.51.15-.769.024-1.491-.337-1.932-.253-.308-.618-.465-1.088-.468-.705-.025-1.025.73-1.055.814a.756.756 0 0 1-.708.5h-.008a.747.747 0 0 1-.704-.508c-.025-.075-.309-.805-1.047-.805Zm5.685 2.543h.01-.01Z"/></svg>
